X: 1
T: The Haddington Assembly
T: 8x32J 3C (Jean Henderson)
T: 1c DnMdUp Cast2, S2W S3M, S2M S3W, R3crnr
P: The Haddington Assembly
C: William Fraser
C: from Stan Hamilton "Scottish Dance Time 5"
C: arr. T. Traub 8-16-2013
R: jig
M: 6/8
L: 1/8
K: F
|: AB|"F"cAF F2 A|"F"cAF G2 A|"Gm"dBG GAG|"C"e3 "Bb"fed|"F"cAF "(G7)"F2 A|"C"cAF F2 B|"F"AcA "C"BGE |"F"F3 F :|
|: c|"F"f2 g "G" afd|"C"e2 f gec|"Bb"dfd cAF|"G"GAF "C"EDC|"F"FAF "Gm"G2 B|"F"AcA "Bb"B2 d|"F"cBA "C"GFE|"F"F3 F2 :|